X:3520
T:Bist du bei mir
T:BWV 508
C:Gottfried Heinrich St\"olzel
R:Aria
Z:Transcribed by Frank Nordberg - http://www.musicaviva.com
F:http://abc.musicaviva.com/tunes/stolzel-gottfried-heinrich/bwv0508/bwv0508-pno2.abc
M:3/4
L:1/4
Q:1/4=88
K:Bbmix
V:1
Be>f|d2 z|e_AA|A2G|z/ B/ (d/B/) (=A/B/)|
V:2
E,C,F,|B,,B,A,|G,F,E,|D,B,,E,,|=E,,E,,E,,|
%
V:1
F/B/ (d/B/) (=A/B/)|Ec3/2d//e//|d3/4c// B3/4c// F3/4=A//|B3:|
V:2
F,,F,,F,,|G,,=A,,F,,|B,,E,,F,,|B,,B,/_A,/G,/F,/:|
%
V:1
|:e g/e/ _d/c/|c3|af>e|Td2e|
V:2
|:G,E,G,|A,2G,|F,A,F,|B,,=B,,C,|
%
V:1
z/ e/ g/e/ d/e/|B/e/ (g/e/) (d/e/)|A(f3/2g//a//)|g3/4f// e3/4f// B3/4d//|e3||
V:2
=A,,A,,A,,|B,,B,,B,,|C,D,B,,|E,A,,B,,|E,,G,/F,/E,/D,/||
%
V:1
ge>d|c2 z|fB>c|=AG/A/F|
V:2
C,CC,|F,F,,E,,|D,,G,,E,,|F,,2 z|
%
V:1
z/ c/ (e/c/) (=B/c/)|G/ c/ (e/c/) (=B/c/)|F/=E/F d3/4e/8f/8|
V:2
^F,,F,,F,,|G,,G,,G,,|A,2A,,|
%
V:1
e3/4d// c3/4d// G3/4=B//|c3|Fe>f|d2 z|
V:2
C,E,,G,,|C,EB,|=A,2F,|B,,B,_A,|
%
V:1
eAA|A2G|z/ B/ (d/B/) (=A/B/)|F/ B/ (d/B/) (=A/B/)|
V:2
G,F,E,|D,B,,E,,|=E,,E,,E,,|F,,F,,F,,|
%
V:1
E/D/ E c3/4d/8e/8|d3/4c// B3/4c// F3/4=A//|[1B3:|[2B3|]
V:2
G,,=A,,F,,|B,,D,,F,,|[1B,,B,A,:|[2B,,3|]
W:
W:Bist du bei mir
W:Geh ich mit Freuden
W:Zum Sterben und zu meiner Ruh,
W:Zum Sterben und zu meiner Ruh.
W:
W:Ach, wie vergn\"ugt
W:W\"ar so mein Ende,
W:Es dr\"uckten deine sch\"onen H\"ande
W:Mir die getreuen Augen zu\.i.
W:
W:
W:  From Musica Viva - http://www.musicaviva.com
W:  the Internet center for free sheet music downloads.
